assets/icons/people.svg

<svg height="98" viewBox="0 0 140 98" width="140" xmlns="http://www.w3.org/2000/svg"><path d="m21 44.25a14 14 0 1 0 -14-14 14.013 14.013 0 0 0 14 14zm98 0a14 14 0 1 0 -14-14 14.013 14.013 0 0 0 14 14zm7 7h-14a13.959 13.959 0 0 0 -9.866 4.069 32 32 0 0 1 16.428 23.931h14.438a6.992 6.992 0 0 0 7-7v-7a14.013 14.013 0 0 0 -14-14zm-56 0a24.5 24.5 0 1 0 -24.5-24.5 24.488 24.488 0 0 0 24.5 24.5zm16.8 7h-1.816a33.826 33.826 0 0 1 -29.969 0h-1.815a25.206 25.206 0 0 0 -25.2 25.2v6.3a10.5 10.5 0 0 0 10.5 10.5h63a10.5 10.5 0 0 0 10.5-10.5v-6.3a25.206 25.206 0 0 0 -25.2-25.2zm-48.934-2.931a13.959 13.959 0 0 0 -9.866-4.069h-14a14.013 14.013 0 0 0 -14 14v7a6.992 6.992 0 0 0 7 7h14.416a32.078 32.078 0 0 1 16.45-23.931z" fill="#ff9f45" transform="translate(0 -2.25)"/></svg>

<svg xmlns="http://www.w3.org/2000/svg" width="140" height="98" viewBox="0 0 140 98">
  <path id="Icon_awesome-users" data-name="Icon awesome-users" d="M21,44.25a14,14,0,1,0-14-14A14.013,14.013,0,0,0,21,44.25Zm98,0a14,14,0,1,0-14-14A14.013,14.013,0,0,0,119,44.25Zm7,7H112a13.959,13.959,0,0,0-9.866,4.069A32,32,0,0,1,118.562,79.25H133a6.992,6.992,0,0,0,7-7v-7A14.013,14.013,0,0,0,126,51.25Zm-56,0a24.5,24.5,0,1,0-24.5-24.5A24.488,24.488,0,0,0,70,51.25Zm16.8,7H84.984a33.826,33.826,0,0,1-29.969,0H53.2A25.206,25.206,0,0,0,28,83.45v6.3a10.5,10.5,0,0,0,10.5,10.5h63A10.5,10.5,0,0,0,112,89.75v-6.3A25.206,25.206,0,0,0,86.8,58.25ZM37.866,55.319A13.959,13.959,0,0,0,28,51.25H14a14.013,14.013,0,0,0-14,14v7a6.992,6.992,0,0,0,7,7H21.416A32.078,32.078,0,0,1,37.866,55.319Z" transform="translate(0 -2.25)" fill="#ff9f45"/>
</svg>
